X:205
T: Paddy Shannon's
R: reel
S: 4 Men and a Dog: Barking Mad
Z: B.Black
M: 4/4
L: 1/8
K: G
A | Bdge dBGE | FADF ABcA | Bdge dBGE |\
DC C2 DEGA |
Bdge dBGE | FADF AGAB | cBcg fdde | fgaf g3 :|
E | DG G2 DG G2 | ABcB Ad d2 | =f2 ed cA^FA |\
_B2 AG =FDCF |
DE=FE DG G2 | BG G2 ABce | d^cde =f2 ef |\
cAFA G3 :|
